icons/1_Primary/TorrentBD.svg

<svg width="1024" height="1024" fill="none" xmlns="http://www.w3.org/2000/svg"><g clip-path="url(#a)"><path d="M512 1024c282.77 0 512-229.23 512-512S794.77 0 512 0 0 229.23 0 512s229.23 512 512 512Z" fill="#9ABEFF"/><path d="M512 256c-141.38 0-256 114.62-256 256s114.62 256 256 256 256-114.62 256-256-114.62-256-256-256Zm186.21 187.83c-18.27 1.09-35.8-7.55-54.11-5-21.44 1.56-43.87 5.66-61.45 18.85-14.87 11.14-23.26 29-26.08 47-4.15 22.68-.07 45.72-1.47 68.54-.66 43.84-5.75 87.45-8.75 131.16-1.32 15.53-4.33 31.75-13.83 44.53a35.247 35.247 0 0 1-26.65 13.87c-15.06 1.06-29.52-4.42-43-10.48 1.64-66.1-1.87-132.37 4.56-198.3 1.75-18.39 5.08-36.85 3.06-55.36-1.07-9.49-4-19.88-12.19-25.68-8.16-5.58-18.71-5.6-28.12-4.1-16.66 2.45-32.38 8.75-48 14.75-12.39 4.43-25.88 9.06-39.11 5.82-8.75-2.07-15.36-9.21-18.77-17.27-5.31-12.25-7.51-27.56.44-39.19 8.58-12.25 23.3-17.81 37-22.15 72.73-21.3 149-31.19 224.76-26.72 47.32 2.58 94.25 10.76 140 23.17-.46 9.22-2.69 18.71-8.12 26.33-4.6 6.47-12.45 9.79-20.17 10.23Z" fill="#fff"/></g><defs><clipPath id="a"><path fill="#fff" d="M0 0h1024v1024H0z"/></clipPath></defs></svg>

<svg width="1024" height="1024" viewBox="0 0 1024 1024" fill="none" xmlns="http://www.w3.org/2000/svg">
<g clip-path="url(#clip0_2_3693)">
<path d="M512 1024C794.77 1024 1024 794.77 1024 512C1024 229.23 794.77 0 512 0C229.23 0 0 229.23 0 512C0 794.77 229.23 1024 512 1024Z" fill="#9ABEFF"/>
<path d="M512 256C370.62 256 256 370.62 256 512C256 653.38 370.62 768 512 768C653.38 768 768 653.38 768 512C768 370.62 653.38 256 512 256ZM698.21 443.83C679.94 444.92 662.41 436.28 644.1 438.83C622.66 440.39 600.23 444.49 582.65 457.68C567.78 468.82 559.39 486.68 556.57 504.68C552.42 527.36 556.5 550.4 555.1 573.22C554.44 617.06 549.35 660.67 546.35 704.38C545.03 719.91 542.02 736.13 532.52 748.91C529.374 753.043 525.354 756.429 520.747 758.827C516.14 761.225 511.06 762.575 505.87 762.78C490.81 763.84 476.35 758.36 462.87 752.3C464.51 686.2 461 619.93 467.43 554C469.18 535.61 472.51 517.15 470.49 498.64C469.42 489.15 466.49 478.76 458.3 472.96C450.14 467.38 439.59 467.36 430.18 468.86C413.52 471.31 397.8 477.61 382.18 483.61C369.79 488.04 356.3 492.67 343.07 489.43C334.32 487.36 327.71 480.22 324.3 472.16C318.99 459.91 316.79 444.6 324.74 432.97C333.32 420.72 348.04 415.16 361.74 410.82C434.47 389.52 510.74 379.63 586.5 384.1C633.82 386.68 680.75 394.86 726.5 407.27C726.04 416.49 723.81 425.98 718.38 433.6C713.78 440.07 705.93 443.39 698.21 443.83Z" fill="white"/>
</g>
<defs>
<clipPath id="clip0_2_3693">
<rect width="1024" height="1024" fill="white"/>
</clipPath>
</defs>
</svg>
